Sources/FrostedUI/Resources/Icons.xcassets/pauseFilled24.imageset/pause-filled-24.svg

<svg width="24" height="24" viewBox="0 0 24 24" fill="none" xmlns="http://www.w3.org/2000/svg" data-fui-icon="true">
  <path
    d="M7 2.49951C8.10457 2.49951 9 3.39592 9 4.50049V19.4995C9 20.6041 8.10457 21.5005 7 21.5005H5C3.89543 21.5005 3 20.6041 3 19.4995V4.50049C3 3.39592 3.89543 2.49951 5 2.49951H7ZM19 2.49951C20.1046 2.49951 21 3.39592 21 4.50049V19.4995C21 20.6041 20.1046 21.5005 19 21.5005H17C15.8954 21.5005 15 20.6041 15 19.4995V4.50049C15 3.39592 15.8954 2.49951 17 2.49951H19Z"
    fill="currentColor"
  />
</svg>

<svg xmlns="http://www.w3.org/2000/svg" width="24" height="24" fill="none" data-fui-icon="true" viewBox="0 0 24 24"><path fill="currentColor" d="M7 2.5a2 2 0 0 1 2 2v15a2 2 0 0 1-2 2H5a2 2 0 0 1-2-2v-15a2 2 0 0 1 2-2zm12 0a2 2 0 0 1 2 2v15a2 2 0 0 1-2 2h-2a2 2 0 0 1-2-2v-15a2 2 0 0 1 2-2z"/></svg>
